X: 1
T: Roustabout
C: trad. US
O: arr. Andy Reiner
R: reel
S: https://www.patreon.com/posts/rustic-roots-27198819
Z: 2020 John Chambers <jc:trillian.mit.edu>
M: C|
L: 1/8
K: G
|: "G"DEG2 AGE2 | DEGA   B2B2 |    DEG2 AGE2 | DEG2 G4 :|
|: "G"B4   d4   | (Bd3) "C"e4 | "G"DEG2 AGE2 | DEG2 G4 :|
